app/assets/images/icons/communication.svg

<svg width="105" height="105" viewBox="0 0 105 105" xmlns="http://www.w3.org/2000/svg">
<path d="m72.634 54.172c1.5147 0 2.9408-0.6671 3.9088-1.8307l6.8347-8.2006h12.591c4.6092 0 8.3592-3.75 8.3592-8.3594v-16.719c0-4.6094-3.75-8.3594-8.3592-8.3594h-8.3594c0-5.5322-4.499-10.031-10.031-10.031-5.5322 0-10.031 4.499-10.031 10.031h-8.3594c-4.6094 0-8.3594 3.75-8.3594 8.3594v9.2304c-3.1816-2.6315-7.2609-4.2148-11.703-4.2148h-1.6719c-5.5439 0-10.85 2.5496-14.321 6.853-5.2914 1.2774-9.0849 6.0556-9.0849 11.538 0 5.7713 2.4743 11.182 6.7778 14.995 0.56 5.1995 3.7817 9.5999 8.2691 11.838v3.6079l-11.666 2.7453c-9.8657 2.3205-16.756 11.021-16.756 21.156v7.5166h70.219v-7.5166c0-3.2752-0.7289-6.3949-2.0346-9.202h6.2661l6.8347 8.1989c0.968 1.1652 2.3941 1.8323 3.9088 1.8323 2.8054 0 5.0875-2.2821 5.0875-5.0875v-4.9437h5.0157c4.6092 0 8.3592-3.75 8.3592-8.3594v-13.375c0-4.6094-3.75-8.3594-8.3592-8.3594h-33.438c-4.6093 0-8.3593 3.75-8.3593 8.3594v9.7905c-0.0134-0.0033-0.0251-0.0084-0.0368-0.01l-11.666-2.7453v-3.6079c4.4873-2.2386 7.709-6.6406 8.269-11.838 3.8838-3.4424 6.2595-8.1855 6.6859-13.323h10.123v4.9438c0 2.8054 2.2821 5.0875 5.0875 5.0875zm4.9437-50.156c3.6882 0 6.6875 2.9994 6.6875 6.6875 0 3.6882-2.9993 6.6875-6.6875 6.6875-3.6881 0-6.6875-2.9993-6.6875-6.6875 0-3.6881 2.9994-6.6875 6.6875-6.6875zm-47.493 72.096 3.6062 4.81-3.8938 5.1911-3.3671-9.1418 3.6547-0.8593zm5.696 7.5953 4.6077 6.1425-4.1011 11.134h-1.0115l-4.1011-11.134 4.606-6.1425zm-31.766 13.104c0-8.5767 5.8298-15.938 14.179-17.902l4.9538-1.1653 8.5633 23.24h-14.321v-10.031h-3.3437v10.031h-10.031v-4.1726zm53.5-30.936c0-2.7653 2.2504-5.0156 5.0156-5.0156h33.438c2.7652 0 5.0152 2.2503 5.0152 5.0156v13.375c0 2.7653-2.25 5.0156-5.0152 5.0156h-8.3594v8.2875c0 0.9613-0.7825 1.7438-1.7438 1.7438-0.5199 0-1.0081-0.2291-1.3392-0.627l-7.836-9.4043h-9.7788c-2.3223-3.2902-5.5473-5.9218-9.396-7.5151v-10.876zm10.031 30.936v4.1726h-10.031v-10.031h-3.3437v10.031h-14.321l8.5617-23.24 4.9537 1.1653c8.351 1.9662 14.181 9.3274 14.181 17.902zm-22.413-19.838-3.3671 9.1418-3.8955-5.1928 3.6062-4.81 3.6564 0.861zm-6.0087-3.2953-3.3438 4.4589-3.3437-4.4589v-3.1748c1.0767 0.2457 2.1935 0.3878 3.3437 0.3878 1.1503 0 2.2671-0.1421 3.3438-0.3878v3.1748zm8.3594-17.834c0 6.4534-5.2514 11.703-11.703 11.703-6.4517 0-11.703-5.2497-11.703-11.703v-7.8528c0-1.2021 0.9764-2.1785 2.1785-2.1785 0.4313 0 0.8493 0.1271 1.2087 0.3661l4.4656 2.9776h10.538c2.7652 0 5.0156 2.2504 5.0156 5.0157v1.6719zm3.1949-3.1499c-0.7038-3.9038-4.1078-6.8814-8.2105-6.8814h-9.5247l-3.6246-2.4159c-0.9095-0.6069-1.9695-0.9278-3.0629-0.9278-3.0462 0-5.5222 2.476-5.5222 5.5222v4.4873c-2.1467-2.8623-3.3438-6.3498-3.3438-10.01 0-4.0493 2.8823-7.5653 6.8547-8.3594l0.7891-0.1589 0.3812-0.5099c2.8272-3.7684 7.3279-6.0187 12.038-6.0187h1.6719c8.2975 0 15.047 6.751 15.047 15.047 0 3.75-1.2456 7.3244-3.4926 10.225zm6.7511-11.897c-0.2976-3.2802-1.4613-6.3114-3.2585-8.8693v-12.865c0-2.7653 2.2503-5.0156 5.0156-5.0156h8.9445c0.642 1.8089 1.7839 3.3772 3.2669 4.5425-6.1659 2.4626-10.54 8.4847-10.54 15.52v3.3437h33.438v-3.3437c0-7.0353-4.3737-13.057-10.54-15.52 1.4829-1.1653 2.6248-2.7336 3.2668-4.5425h8.9446c2.7652 0 5.0152 2.2503 5.0152 5.0156v16.719c0 2.7653-2.25 5.0157-5.0152 5.0157h-14.159l-7.8377 9.4043c-0.3294 0.3979-0.8176 0.6269-1.3375 0.6269-0.9613 0-1.7438-0.7824-1.7438-1.7437v-8.2875h-13.46zm20.148-20.062c7.3747 0 13.375 6.0003 13.375 13.375h-26.75c0-7.3747 6.0004-13.375 13.375-13.375z"/>
<path d="m60.859 64.203h36.781v3.3438h-36.781v-3.3438z"/>
<path d="m60.859 70.891h36.781v3.3438h-36.781v-3.3438z"/>
<path d="m67.547 77.578h23.406v3.3438h-23.406v-3.3438z"/>
</svg>

<svg width="105" height="105" viewBox="0 0 105 105" fill="none" xmlns="http://www.w3.org/2000/svg">
<path d="M72.6344 54.1719C74.1491 54.1719 75.5752 53.5048 76.5432 52.3412L83.3779 44.1406H95.9688C100.578 44.1406 104.328 40.3906 104.328 35.7812V19.0625C104.328 14.4531 100.578 10.7031 95.9688 10.7031H87.6094C87.6094 5.17089 83.1104 0.671875 77.5781 0.671875C72.0459 0.671875 67.5469 5.17089 67.5469 10.7031H59.1875C54.5781 10.7031 50.8281 14.4531 50.8281 19.0625V28.2929C47.6465 25.6614 43.5672 24.0781 39.125 24.0781H37.4531C31.9092 24.0781 26.6027 26.6277 23.1318 30.9311C17.8404 32.2085 14.0469 36.9867 14.0469 42.4688C14.0469 48.2401 16.5212 53.6503 20.8247 57.4638C21.3847 62.6633 24.6064 67.0637 29.0938 69.3023V72.9102L17.4274 75.6555C7.56167 77.976 0.671875 86.6765 0.671875 96.8114V104.328H70.8906V96.8114C70.8906 93.5362 70.1617 90.4165 68.856 87.6094H75.1221L81.9568 95.8083C82.9248 96.9735 84.3509 97.6406 85.8656 97.6406C88.671 97.6406 90.9531 95.3585 90.9531 92.5531V87.6094H95.9688C100.578 87.6094 104.328 83.8594 104.328 79.25V65.875C104.328 61.2656 100.578 57.5156 95.9688 57.5156H62.5312C57.9219 57.5156 54.1719 61.2656 54.1719 65.875V75.6655C54.1585 75.6622 54.1468 75.6571 54.1351 75.6555L42.4688 72.9102V69.3023C46.9561 67.0637 50.1778 62.6617 50.7378 57.4638C54.6216 54.0214 56.9973 49.2783 57.4237 44.1406H67.5469V49.0844C67.5469 51.8898 69.829 54.1719 72.6344 54.1719ZM77.5781 4.01562C81.2663 4.01562 84.2656 7.01497 84.2656 10.7031C84.2656 14.3913 81.2663 17.3906 77.5781 17.3906C73.89 17.3906 70.8906 14.3913 70.8906 10.7031C70.8906 7.01497 73.89 4.01562 77.5781 4.01562ZM30.0852 76.1119L33.6914 80.9219L29.7976 86.113L26.4305 76.9712L30.0852 76.1119ZM35.7812 83.7072L40.3889 89.8497L36.2878 100.984H35.2763L31.1752 89.8497L35.7812 83.7072ZM4.01562 96.8114C4.01562 88.2347 9.84545 80.8734 18.1948 78.9089L23.1486 77.7436L31.7119 100.984H17.3906V90.9531H14.0469V100.984H4.01562V96.8114ZM57.5156 65.875C57.5156 63.1097 59.766 60.8594 62.5312 60.8594H95.9688C98.734 60.8594 100.984 63.1097 100.984 65.875V79.25C100.984 82.0153 98.734 84.2656 95.9688 84.2656H87.6094V92.5531C87.6094 93.5144 86.8269 94.2969 85.8656 94.2969C85.3457 94.2969 84.8575 94.0678 84.5264 93.6699L76.6904 84.2656H66.9116C64.5893 80.9754 61.3643 78.3438 57.5156 76.7505V65.875ZM67.5469 96.8114V100.984H57.5156V90.9531H54.1719V100.984H39.8506L48.4123 77.7436L53.366 78.9089C61.717 80.8751 67.5469 88.2363 67.5469 96.8114ZM45.1337 76.9729L41.7666 86.1147L37.8711 80.9219L41.4773 76.1119L45.1337 76.9729ZM39.125 73.6776L35.7812 78.1365L32.4375 73.6776V70.5028C33.5142 70.7485 34.631 70.8906 35.7812 70.8906C36.9315 70.8906 38.0483 70.7485 39.125 70.5028V73.6776ZM47.4844 55.8438C47.4844 62.2972 42.233 67.5469 35.7812 67.5469C29.3295 67.5469 24.0781 62.2972 24.0781 55.8438V47.991C24.0781 46.7889 25.0545 45.8125 26.2566 45.8125C26.6879 45.8125 27.1059 45.9396 27.4653 46.1786L31.9309 49.1562H42.4688C45.234 49.1562 47.4844 51.4066 47.4844 54.1719V55.8438ZM50.6793 52.6939C49.9755 48.7901 46.5715 45.8125 42.4688 45.8125H32.9441L29.3195 43.3966C28.41 42.7897 27.35 42.4688 26.2566 42.4688C23.2104 42.4688 20.7344 44.9448 20.7344 47.991V52.4783C18.5877 49.616 17.3906 46.1285 17.3906 42.4688C17.3906 38.4195 20.2729 34.9035 24.2453 34.1094L25.0344 33.9505L25.4156 33.4406C28.2428 29.6722 32.7435 27.4219 37.4531 27.4219H39.125C47.4225 27.4219 54.1719 34.1729 54.1719 42.4688C54.1719 46.2188 52.9263 49.7932 50.6793 52.6939ZM57.4304 40.7969C57.1328 37.5167 55.9691 34.4855 54.1719 31.9276V19.0625C54.1719 16.2972 56.4222 14.0469 59.1875 14.0469H68.132C68.774 15.8558 69.9159 17.4241 71.3989 18.5894C65.233 21.052 60.8594 27.0741 60.8594 34.1094V37.4531H94.2969V34.1094C94.2969 27.0741 89.9232 21.052 83.7574 18.5894C85.2403 17.4241 86.3822 15.8558 87.0242 14.0469H95.9688C98.734 14.0469 100.984 16.2972 100.984 19.0625V35.7812C100.984 38.5465 98.734 40.7969 95.9688 40.7969H81.8096L73.9719 50.2012C73.6425 50.5991 73.1543 50.8281 72.6344 50.8281C71.6731 50.8281 70.8906 50.0457 70.8906 49.0844V40.7969H57.4304ZM77.5781 20.7344C84.9528 20.7344 90.9531 26.7347 90.9531 34.1094H64.2031C64.2031 26.7347 70.2035 20.7344 77.5781 20.7344Z" fill="black"/>
<path d="M60.8594 64.2031H97.6406V67.5469H60.8594V64.2031Z" fill="black"/>
<path d="M60.8594 70.8906H97.6406V74.2344H60.8594V70.8906Z" fill="black"/>
<path d="M67.5469 77.5781H90.9531V80.9219H67.5469V77.5781Z" fill="black"/>
</svg>
